X: 55
T:Kilavel Jig
R:Jig
M:6/8
S:Charles de Lint
L:1/8
Q:3/8=120
K:G
|:B2E GFE|BAB edB|AFF DFF|AFA dBA|
B2E GFE|BAB edB|AFA dAF|EFE E3:|
|:Bef g2e|faf edB|AFF DFF|AFA dBA|
Bef g2e|faf edB|AFA dAF|EFE E3:|
